X:4924
T:Paddy Fahy's No.1
O:england
S:Fisherstreet
M:6/8
L:1/8
K:D
DFA dcA|AGE AGE|DFA dcA|AGE =~C2 C|
A,DD EFG|AdB =~c2 c|dfd AFF|GEA ~D2D:|
|:DFA fed|dcA AGE|AGE DdB|=~c2 cGE C|
A,DD EFG|AdB =~c2 c|dfd AFF|GEA ~D2D:|


